X:1
T: Hüccs ki, disznó
K: F
L:1/4
M:2/4
gg/a/ | ff/d/ | c2 | f f | 
gg/a/ | ff/d/ | c2 | d d |
cc/d/ | B B/G/ | F2 | B B | 
cc/d/ | B B/G/ | F2 | G G | 

